public/shapes/items/125.svg

<?xml version="1.0" encoding="UTF-8"?>
<svg width="61px" height="59.65px" version="1.1" xmlns="http://www.w3.org/2000/svg" xmlns:cc="http://creativecommons.org/ns#" xmlns:dc="http://purl.org/dc/elements/1.1/" xmlns:rdf="http://www.w3.org/1999/02/22-rdf-syntax-ns#">
 <metadata>
  <rdf:RDF>
   <cc:Work rdf:about="">
    <dc:format>image/svg+xml</dc:format>
    <dc:type rdf:resource="http://purl.org/dc/dcmitype/StillImage"/>
    <dc:title/>
   </cc:Work>
  </rdf:RDF>
 </metadata>
 <path d="m29.48 56.066c-2.5499-0.21205-6.1784-0.68156-8.4766-2.5195-1.2962-1.0366-3.1544-3.2585-4.3401-4.867-5.3509-7.2585-9.376-20.242-12.22-35.285-0.50775-2.6861-0.70401-4.6735-0.62023-4.6386 2.958 1.2307 6.1829 1.9103 10.161 2.4965 3.7354 0.55047 9.8448 1.604 13.686 0.99228l0.8783-0.13987 0.24562 9.0031 0.14035 8.2311 1.4324-0.09649 1.3973 0.07895-0.03509-8.2022 0.03509-8.939 2.9565-0.34438c9.4921-1.1057 16.473-0.78639 21.023-2.5904 0.53541-0.2123 1.7274-0.79712 1.6849-0.60952-0.01059 0.046744-0.79871 4.4489-1.1815 6.3603-2.8242 14.101-7.111 26.176-12.063 33.117-1.3828 1.9381-2.8994 4.5181-4.3237 5.6505-2.3745 1.8878-5.7525 2.8964-8.3909 3.1019-0.94216 0.07337-1.0392-0.72073-1.9893-0.79976zm-9.6627-28.552c2.2596-0.59009 3.8531-2.5109 4.3646-4.8301 0.16671-0.7558 0.04885-2.1614-0.13995-2.8768-0.17227-0.65276-0.55764-1.4961-0.68999-1.4961-0.04961 0-2.6096 0.95618-5.7829 1.9693l-5.2892 1.6885 0.0042 0.61498c0.0096 1.4182 0.4451 1.3834 0.97221 2.1847 0.9689 1.473 2.2779 2.2397 4.0197 2.5727 0.69843 0.13352 1.8164 0.36216 2.5413 0.17284zm24.964-0.41926c-2.3788 1.1894 2.8883-2.6297 3.9499-4.9241l0.12692-0.27433-5.7271-1.9594c-3.1613-1.0816-5.2216-1.784-5.2471-1.784-0.09375 0-0.60471 1.0045-0.78952 1.6188-0.17073 0.56753-0.27812 0.63718-0.27754 1.5831 5.63e-4 0.86352 0.0811 1.175 0.2064 1.6355 0.41454 1.5237 1.1142 2.5557 2.4352 3.4178 0.81362 0.531 1.2787 0.79417 2.53 1.0254 0.41172 0.07607 3.2959-0.59022 2.7929-0.33869z" fill="#fff" stroke-width=".070311"/>
 <g transform="translate(30.5 29.8)" fill-rule="evenodd">
  <path d="m12.3-2.05q-2.6 0-4.45-1.85-1.85-1.9-1.85-4.5 0-1.65 0.95-3.3l0.15-0.25 11.5 3.85v0.3q-0.2 2.45-2 4.1-1.85 1.65-4.3 1.65m-4.8-8.95q-0.7 1.25-0.7 2.6 0 2.3 1.6 3.9 1.6 1.65 3.9 1.65 2.1 0 3.65-1.35 1.5-1.35 1.8-3.4l-10.25-3.4"/>
  <path d="m-6.7-8.4q0-1.3-0.7-2.55l-10.25 3.45q0.3 2 1.8 3.3 1.55 1.35 3.6 1.35 2.3 0 3.9-1.65 1.65-1.6 1.65-3.9m-11.8 0.65-0.05-0.3 11.55-3.85 0.15 0.3q0.9 1.5 0.9 3.2 0 2.6-1.85 4.5-1.85 1.85-4.45 1.85-2.45 0-4.25-1.65-1.75-1.6-2-4.05"/>
  <path d="m0.4 24.65q-6.35 0-12.8-10.6-2.05-3.35-3.9-7.45l-1.6-3.8-0.35-1.05 0.95 0.6 2.9 1.35q3.65 1.5 7.65 2.25 12.75 2.4 24.55-3.65l0.85-0.4-0.35 0.9q-2.05 5.9-5.25 11.25-6.25 10.6-12.65 10.6"/>
  <path d="m-1.95-0.25v-16.8q-16.95-0.2-24.4-3.65 2.65 16.2 7.5 27.95 7.8 19.1 18.9 19.1 11 0 18.8-19 4.85-11.8 7.5-27.85-7.45 3.4-24.7 3.45v16.8h-3.6m32.45-24.7q-0.45 3.85-1.5 9.5-1.95 10.3-4.85 18.75-9.15 26.55-24.1 26.55t-24.1-26.55q-2.9-8.45-4.9-18.75l-1.55-9.5h0.15q0.35-1.3 1.9-2.4 2.6-1.85 7.6-2.45v7.4q7.4 1.9 21.25 1.9 13.1 0 20.25-1.7v-7.6q4.95 0.6 7.55 2.4 1.5 1.1 1.95 2.4l0.35 0.05"/>
 </g>
</svg>

<?xml version="1.0" encoding="UTF-8" standalone="no"?>
<svg xmlns:xlink="http://www.w3.org/1999/xlink" height="59.65px" width="61.0px" xmlns="http://www.w3.org/2000/svg">
  <g transform="matrix(1.0, 0.0, 0.0, 1.0, 30.5, 29.8)">
    <path d="M12.3 -2.05 Q9.7 -2.05 7.85 -3.9 6.0 -5.8 6.0 -8.4 6.0 -10.05 6.95 -11.7 L7.1 -11.95 18.6 -8.1 18.6 -7.8 Q18.4 -5.35 16.6 -3.7 14.75 -2.05 12.3 -2.05 M7.5 -11.0 Q6.8 -9.75 6.8 -8.4 6.8 -6.1 8.4 -4.5 10.0 -2.85 12.3 -2.85 14.4 -2.85 15.95 -4.2 17.45 -5.55 17.75 -7.6 L7.5 -11.0" fill="#000000" fill-rule="evenodd" stroke="none"/>
    <path d="M-6.7 -8.4 Q-6.7 -9.7 -7.4 -10.95 L-17.65 -7.5 Q-17.35 -5.5 -15.85 -4.2 -14.3 -2.85 -12.25 -2.85 -9.95 -2.85 -8.35 -4.5 -6.7 -6.1 -6.7 -8.4 M-18.5 -7.75 L-18.55 -8.05 -7.0 -11.9 -6.85 -11.6 Q-5.95 -10.1 -5.95 -8.4 -5.95 -5.8 -7.8 -3.9 -9.65 -2.05 -12.25 -2.05 -14.7 -2.05 -16.5 -3.7 -18.25 -5.3 -18.5 -7.75" fill="#000000" fill-rule="evenodd" stroke="none"/>
    <path d="M0.4 24.65 Q-5.95 24.65 -12.4 14.05 -14.45 10.7 -16.3 6.6 L-17.9 2.8 -18.25 1.75 -17.3 2.35 -14.4 3.7 Q-10.75 5.2 -6.75 5.95 6.0 8.35 17.8 2.3 L18.65 1.9 18.3 2.8 Q16.25 8.7 13.05 14.05 6.8 24.65 0.4 24.65" fill="#000000" fill-rule="evenodd" stroke="none"/>
    <path d="M-1.95 -0.25 L-1.95 -17.05 Q-18.9 -17.25 -26.35 -20.7 -23.7 -4.5 -18.85 7.25 -11.05 26.35 0.05 26.35 11.05 26.35 18.85 7.35 23.7 -4.45 26.35 -20.5 18.9 -17.1 1.65 -17.05 L1.65 -0.25 -1.95 -0.25 M30.5 -24.95 Q30.05 -21.1 29.0 -15.45 27.05 -5.15 24.15 3.3 15.0 29.85 0.05 29.85 -14.9 29.85 -24.05 3.3 -26.95 -5.15 -28.95 -15.45 L-30.5 -24.95 -30.35 -24.95 Q-30.0 -26.25 -28.45 -27.35 -25.85 -29.2 -20.85 -29.8 L-20.85 -22.4 Q-13.45 -20.5 0.4 -20.5 13.5 -20.5 20.65 -22.2 L20.65 -29.8 Q25.6 -29.2 28.2 -27.4 29.7 -26.3 30.15 -25.0 L30.5 -24.95" fill="#000000" fill-rule="evenodd" stroke="none"/>
  </g>
</svg>
